src/images/icons/fb-red.svg

<svg width="24" height="24" viewBox="0 0 24 24" fill="none" xmlns="http://www.w3.org/2000/svg">
<path d="M13.6667 9.25H18V13.375H13.6667V23H9.33333V13.375H5V9.25H9.33333V7.52437C9.33333 5.8895 9.87356 3.82425 10.9482 2.69537C12.0229 1.56375 13.3648 1 14.9724 1H18V5.125H14.9667C14.2473 5.125 13.6667 5.67775 13.6667 6.36112V9.25Z" fill="#F03E3E"/>
</svg>

<svg width="24" height="24" fill="none" xmlns="http://www.w3.org/2000/svg"><path d="M13.667 9.25H18v4.125h-4.333V23H9.333v-9.625H5V9.25h4.333V7.524c0-1.635.54-3.7 1.615-4.829C12.023 1.564 13.365 1 14.972 1H18v4.125h-3.033c-.72 0-1.3.553-1.3 1.236V9.25Z" fill="#F03E3E"/></svg>
